X: 301
T: Laoxi diao
L: 1/8
M: 3/8
K: F
F D c G [I:setbarnb 1]| 
G F/ D/ F D | 
c4 | 
A c A G/ F/ | 
F G/ F/ D C | 
z d c A/ G/ | 
A c G D | 
F G/ F/C2 | 
c c d3/ c/ | 
c2c A | 
G c G A | 
G4 | 
G2c2 | 
A G A c | 
D> CF2 | 
F Gc2 | 
c c A | 
c G c | 
c A A | 
[M:2/4]G< D F3/ G/ | 
A c G D | 
F G/ F/C2 |]

@@@ Tune index: 9175
